X: 8809
T: Cuffe Street
R: jig
M: 6/8
K: Eminor
|:BEE BEE|BEB BAF|BEE BEE|FDF AFD|
BEE BEE|BEB BAF|ABc dfd|BAF AFD:|
|:DFA d2A|BAB d2A|DFA d2A|BAF AFD|
DFA d2A|BAB d2e|fed edB|BAF AFD:|

